X: 305641
M: 6/8
L: 1/8
K: Bb
f |\
f=ef (g2f) | a2f b2d | dcd e2c | cBc d2f |\
f=ef g2f | a2f b2d | dcd fec | fga "^D.C."b2 |]


